X:1
T:Title
%%score { 1 | 2 }
L:1/8
M:6/8
K:D
V:1 treble nm="Grand Piano"
V:2 bass 
V:1
 z3 z2[Q:1/4=100] D | FFF [FA][EG][DF] | [CE][DF][EG] [A,DF]2 [DFA] | %3
 [DGB][DGB][DGB] [DFA][A,EG][A,DF] | [A,CE]3- [A,CE]2 [F,D] | %5
 [A,DF][A,DF][A,DF] [A,FA][A,EG][A,DF] | [A,CE][A,DF][A,EG] [A,DF]2 [DFA] | %7
 [DGB][DGB][DGB] [DFA][A,EG][K:bass][G,CE] | [F,D]6 | [DGB][DGB][DGB] [DBd][DAc][DGB] | %10
 [DFA]2 [A,DF] [DFA]3 | [DGB]2 [DGB] [DGB]3 | [DFA]2 [A,DF] [DFA]3 | %13
 [DGB][DGB][DGB] [DBd][DAc][DGB] | [DFA]2 [A,DF] [DFA]3 | %15
 [DFA][A,EG][A,DF] [A,CE][A,CF][K:bass][G,CE] |[M:5/8] [F,D]-[F,D]- [F,D]3 |] %17
V:2
 z3 z2 [D,F,] | [D,A,D][D,A,D][D,A,D] [D,A,][D,A,][D,A,] | [A,,A,][A,,A,][A,,A,] D,2 D, | %3
 G,G,G, D,C,D, | A,,3- A,,2 D, | D,D,D, D,D,D, | A,,A,,A,, D,2 D, | G,,G,,G,, A,,A,,A,, | D,6 | %9
 G,G,G, G,G,G, | D,2 D, D,3 | G,,2 G,, G,,3 | D,2 D, D,3 | G,G,G, G,G,G, | D,2 D, D,3 | %15
 A,,A,,A,, A,,A,,A,, |[M:5/8] D,-D,- D,3 |] %17

